X:18195
T:Valse  Bouscatel
M:3/4
L:1/4
K:C
e>fg|e>fg|f/e/da|g2e/f/|gg/a/ g/f/|\
ece|1 d/c/ d/e/ f/e/|d3:|2 d/c/ B/c/ d/B/|c2 B/c/||
dd c/d/|ee d/e/|fed|g2a/g/|fd/e/ f/d/|\
ece|1 d/c/ d/e/ f/e/|d2B/c/:|2 d/c/ B/c/ d/B/|c3||
